X:141
T:Heather Breeze
Z: id:dc-reel-365
M:C
L:1/8
K:G Major
GE|DGBG dGBG|DFAF cFAF|DGBG dGBG|BdAc BG:|!
Bd|g3f gbag|fdde fgaf|g3f gbag|fdcA BGBd|!
g3f gbag|fdde fgaf|bgaf gedB|cedc BG|]!
ga|bgdg bagb|afdf agfa|bgdg bgag|fdcA BGga|!
bgdg bagb|afdf agfa|bgaf gedB|cedc BG|]!

